X:9538
T:Les Trois Canards - bourree
C: Bernard Blanc
Z:abc transcription Simon Wascher
N:please mail errors to: simon.wascher@chello.at
M:2/4
L:1/8
K:Gm
dc2B|A3/2G/2 ^FG|A/2B/2A/2G/2 AB|A/2B/2A/2G/2 ^FD|
dc2B|A3/2G/2 ^FG|A/2B/2A/2G/2 ^FD|G4:|
BA2B|G2 ^FG|A/2B/2A/2G/2 AB|A/2B/2A/2G/2 ^FD|
BA2B|G2 ^FG|A/2B/2A/2G/2 ^FD|G4:|


